src/assets/images/search.svg

<svg fill="none" height="20" viewBox="0 0 19 20" width="19" xmlns="http://www.w3.org/2000/svg"><path d="m14.7866 13.7889c1.2491-1.6353 1.8194-3.6735 1.5963-5.70417-.2232-2.0307-1.2233-3.9032-2.7991-5.24056-1.5757-1.33737-3.61013-2.040299-5.69365-1.9673s-4.06146.91651-5.53567 2.36073c-1.474215 1.44423-2.335239 3.38193-2.409754 5.42307-.074515 2.04113.643012 4.03413 2.008144 5.57783 1.36513 1.5437 3.27651 2.5235 5.34938 2.7421 2.07288.2187 4.15335-.3401 5.82255-1.5638l3.9901 3.9089 1.6618-1.6248zm-6.57191.9381c-1.16054 0-2.29501-.3371-3.25996-.9688-.96495-.6316-1.71704-1.5294-2.16116-2.5798-.44411-1.0504-.56032-2.20617-.33391-3.32125.22641-1.11509.78526-2.13935 1.60589-2.94328.82062-.80393 1.86615-1.35142 3.00439-1.57322s2.31805-.10797 3.39026.32712c1.0722.43508 1.9886 1.17187 2.6334 2.11719.6447.94532.9889 2.05672.9889 3.19365-.0015 1.52409-.6202 2.98539-1.7203 4.06319-1.1001 1.0777-2.59173 1.6838-4.14751 1.6852z" fill="#9597a3"/></svg>

<svg width="19" height="20" viewBox="0 0 19 20" fill="none" xmlns="http://www.w3.org/2000/svg">
<g clipPath="url(#clip0_552_27687)">
<path d="M14.7866 13.7889C16.0357 12.1536 16.606 10.1154 16.3829 8.08473C16.1597 6.05403 15.1596 4.18153 13.5838 2.84417C12.0081 1.5068 9.97367 0.803871 7.89015 0.87687C5.80663 0.949869 3.82869 1.79338 2.35448 3.2376C0.880265 4.68183 0.019241 6.61953 -0.055274 8.66067C-0.129789 10.7018 0.587738 12.6948 1.95287 14.2385C3.318 15.7822 5.22938 16.762 7.30225 16.9806C9.37513 17.1993 11.4556 16.6405 13.1248 15.4168L17.1149 19.3257L18.7767 17.7009L14.7866 13.7889ZM8.21469 14.727C7.05415 14.727 5.91968 14.3899 4.95473 13.7582C3.98978 13.1266 3.23769 12.2288 2.79357 11.1784C2.34946 10.128 2.23325 8.97223 2.45966 7.85715C2.68607 6.74206 3.24492 5.7178 4.06555 4.91387C4.88617 4.10994 5.9317 3.56245 7.06994 3.34065C8.20818 3.11885 9.38799 3.23268 10.4602 3.66777C11.5324 4.10285 12.4488 4.83964 13.0936 5.78496C13.7383 6.73028 14.0825 7.84168 14.0825 8.97861C14.081 10.5027 13.4623 11.964 12.3622 13.0418C11.2621 14.1195 9.77047 14.7256 8.21469 14.727Z" fill="#9597A3"/>
</g>
<defs>
<clipPath id="clip0_552_27687">
<rect width="18.7769" height="18.3949" fill="white" transform="translate(0 0.931152)"/>
</clipPath>
</defs>
</svg>
